dressly/src/assets/brand/jimmy-choo.svg

<svg width="167" height="111" viewBox="0 0 167 111" fill="none" xmlns="http://www.w3.org/2000/svg">
<mask id="mask0_105_909" style="mask-type:luminance" maskUnits="userSpaceOnUse" x="47" y="18" width="73" height="75">
<path d="M47.0672 18.5H119.603V92.5719H47.0672V18.5Z" fill="white"/>
</mask>
<g mask="url(#mask0_105_909)">
<path d="M74.6833 80.1129V76.8451C74.6833 71.5856 74.6845 66.3256 74.6869 61.0652C74.6917 59.3349 74.7183 57.6048 74.7667 55.8751C74.7911 53.655 75.4176 51.4827 76.5796 49.5887C77.6982 47.7934 79.2786 46.5364 81.1821 45.6589C82.9468 44.8711 84.8285 44.3752 86.7531 44.1906C88.582 43.9834 90.4304 44.0182 92.2502 44.2941C93.8812 44.5441 95.5176 44.8332 96.9949 45.5901C100.595 47.434 102.917 50.2785 103.621 54.3212C103.825 55.6672 103.92 57.0272 103.907 58.3883C103.917 59.1433 103.92 59.8989 103.901 60.6536C103.889 61.1075 103.75 61.2129 103.3 61.2169C101.927 61.2287 100.553 61.2438 99.1803 61.2548C98.7077 61.2587 98.4769 61.0602 98.4496 60.5848C98.4158 59.9892 98.4057 59.392 98.3966 58.7951C98.3786 57.4732 98.3966 56.1499 98.35 54.8285C98.2558 52.1406 97.2981 49.819 95.2906 47.9786C93.9278 46.7912 92.2458 46.0281 90.4527 45.7838C88.6595 45.5394 86.8338 45.8246 85.2015 46.6039C82.8676 47.8044 81.2289 49.6112 80.5799 52.1816C80.3985 53.0352 80.3057 53.9051 80.3031 54.7776C80.2521 56.0824 80.2611 57.3899 80.2629 58.6962C80.2677 62.3492 80.2981 66.0019 80.2836 69.6549C80.286 70.8971 80.2243 72.1385 80.0985 73.3743C79.7932 76.2035 78.3669 78.3126 75.8307 79.6469C75.4565 79.8218 75.0736 79.9773 74.6833 80.1129Z" fill="#BDBDBD"/>
<path d="M74.9649 83.1042C77.3197 82.6453 77.3197 82.6453 80.1869 81.3857C80.2247 81.8562 80.2528 82.3216 80.3009 82.7854C80.6436 86.1453 82.3414 88.5794 85.3615 90.0913C86.1245 90.4733 86.9646 90.5953 87.808 90.6729C88.939 90.7932 90.0805 90.778 91.2079 90.6278C93.497 90.2938 95.2132 89.0839 96.496 87.2053C97.567 85.674 98.1783 83.8703 98.2584 82.0052C98.3243 80.442 98.3534 78.8773 98.3945 77.313C98.4052 76.8966 98.3874 76.4803 98.4066 76.0639C98.4285 75.5651 98.6782 75.3269 99.182 75.2969C99.4183 75.2828 99.6555 75.282 99.8922 75.2822C100.966 75.2832 102.04 75.2857 103.114 75.2896C103.686 75.2914 103.92 75.4728 103.916 76.0363C103.907 77.4274 103.894 78.8194 103.816 80.2086C103.758 81.4907 103.52 82.7584 103.111 83.9751C101.827 87.6623 99.31 90.1522 95.6493 91.4919C93.5062 92.2764 91.2752 92.5368 89.0013 92.4958C86.5833 92.4791 84.1883 92.0256 81.9326 91.1572C79.5456 90.2489 77.5266 88.5796 76.1897 86.409C75.5847 85.3901 75.1697 84.2705 74.9649 83.1042ZM81.0116 45.0703V36.2406C81.0248 35.6761 81.2362 35.4541 81.8084 35.4517C83.269 35.4447 84.7298 35.4447 86.1906 35.4517C86.7421 35.4543 86.938 35.6555 86.9747 36.2049C86.9813 36.3068 86.9826 36.4093 86.9826 36.5117V43.5682C84.925 43.7503 82.9095 44.2573 81.0116 45.0703Z" fill="#BDBDBD"/>
<path d="M83.9917 68.3201C83.6664 68.3171 83.353 68.4422 83.1197 68.6681C82.8863 68.8941 82.7518 69.2027 82.7454 69.527C82.7468 69.6865 82.78 69.8442 82.843 69.9908C82.906 70.1375 82.9976 70.2702 83.1124 70.3813C83.2272 70.4925 83.363 70.5798 83.5119 70.6383C83.6608 70.6968 83.8198 70.7252 83.9798 70.722C84.3067 70.7286 84.6228 70.6058 84.8591 70.3805C85.0954 70.1552 85.2326 69.8458 85.2406 69.52C85.241 69.3609 85.2089 69.2035 85.1462 69.0572C85.0835 68.9109 84.9917 68.7789 84.8762 68.6692C84.6378 68.443 84.3207 68.3178 83.9917 68.3201Z" fill="#BDBDBD"/>
<path d="M86.9823 46.8375V46.5526C85.8421 46.8617 84.7814 47.4103 83.8714 48.1618C82.6546 49.2054 81.6912 50.4337 81.2305 51.994C80.9247 53.03 80.8882 54.104 80.8816 55.173C80.8689 57.2512 80.8913 59.3296 80.8907 61.408C80.8898 64.4629 80.8846 67.5178 80.875 70.5727C80.8832 71.7057 80.8018 72.8375 80.6315 73.9577C80.4596 75.1617 80.0219 76.3127 79.3499 77.3278C78.678 78.3428 77.7885 79.1965 76.7456 79.8273C74.8603 81.0164 72.811 81.1803 70.6941 80.5735C68.1883 79.8552 66.391 78.3327 65.4829 75.8561C64.9919 74.4265 64.6853 72.9404 64.5705 71.4335C64.4476 70.1741 64.3712 68.9098 64.2731 67.6478C64.2338 67.1417 64.0338 66.9366 63.5258 66.929C62.0737 66.907 60.6217 66.895 59.1697 66.8807C59.0987 66.8799 59.0278 66.8865 58.9582 66.9002C58.5173 66.9879 58.2595 67.3136 58.2768 67.8919C58.3069 68.8653 58.3351 69.8436 58.4527 70.8092C58.863 74.1777 60.4309 76.9556 62.9923 79.1464C66.773 82.3815 71.1869 83.2664 75.989 82.2995C79.5059 81.5919 82.3014 79.6478 84.5383 76.8907C85.7719 75.3707 86.6045 73.6493 86.7672 71.679C86.8927 70.1522 86.9672 68.6168 86.9722 67.0848C86.9949 60.3346 86.9823 53.5862 86.9823 46.8375ZM82.9082 50.8994C83.008 50.8401 83.119 50.8018 83.2342 50.787L83.263 50.7822L83.3037 51.0473L83.2725 51.0497C83.1395 51.0436 83.0094 51.0894 82.9096 51.1772C82.8098 51.2651 82.7483 51.3882 82.7379 51.5205C82.7403 51.6829 82.8698 51.9912 83.3298 51.9912H85.2353V51.8575H85.36V52.3857H85.2305V52.266H83.5624C83.3356 52.2875 83.1074 52.2427 82.9056 52.1371C82.8061 52.0672 82.725 51.9743 82.669 51.8665C82.6131 51.7586 82.584 51.6389 82.5843 51.5175C82.5845 51.3961 82.614 51.2766 82.6704 51.1689C82.7268 51.0613 82.8083 50.9688 82.908 50.8992L82.9082 50.8994ZM85.3602 55.1531V55.5114H85.2331V55.3943H82.7493V55.5114H82.6223V54.9874H82.7254L82.7445 54.9994L82.7469 55.0137L82.7493 55.1213H84.8516L83.3846 54.5381L84.7795 53.9552H82.7493V54.077H82.6223V53.6517H82.7493V53.7878H85.2331V53.6517H85.3602V53.9719L83.927 54.5842L85.3602 55.1531ZM85.3602 57.3564V57.7171H85.2331V57.5974H82.7493V57.7171H82.6223V57.1911H82.7493V57.325H84.8516L83.3846 56.7443L84.7795 56.1587H82.7493V56.2806H82.6223V55.8552H82.7493V55.9913H85.2331V55.8552H85.3602V56.1754L83.927 56.7875L85.3602 57.3564ZM84.097 58.9599L85.2331 59.4091V59.2849H85.3602V59.7012H85.2331V59.5816L83.8765 59.0416H82.75V59.2329H82.6229V58.5924H82.75V58.762H83.8813L85.2331 58.1026V57.9805H85.3602V58.5135H85.2331V58.3938L84.097 58.9599ZM85.2331 53.2772V53.1575H82.7493V53.2772H82.6223V52.7608H82.7493V52.8875H85.2331V52.7608H85.3602V53.278L85.2331 53.2772ZM83.9914 70.9895C83.6969 71.0033 83.4051 70.9288 83.1534 70.7756C82.9018 70.6224 82.7019 70.3976 82.5796 70.1302C82.4573 69.8627 82.4182 69.5649 82.4672 69.275C82.5163 68.9852 82.6513 68.7166 82.8548 68.504C83.0584 68.2913 83.3211 68.1443 83.6093 68.0819C83.8974 68.0196 84.1976 68.0447 84.4713 68.154C84.745 68.2633 84.9795 68.4519 85.1447 68.6953C85.31 68.9388 85.3982 69.226 85.3982 69.5199C85.4065 69.9005 85.2631 70.2689 84.9995 70.5443C84.7359 70.8197 84.3736 70.9797 83.9919 70.9893L83.9914 70.9895ZM83.9914 67.8544C83.697 67.8682 83.4051 67.7936 83.1534 67.6405C82.9018 67.4873 82.702 67.2625 82.5797 66.9951C82.4573 66.7276 82.4182 66.4298 82.4672 66.14C82.5162 65.8501 82.6512 65.5816 82.8548 65.3689C83.0583 65.1563 83.321 65.0093 83.6091 64.9468C83.8972 64.8844 84.1975 64.9095 84.4711 65.0188C84.7448 65.1281 84.9794 65.3166 85.1446 65.56C85.3099 65.8035 85.3982 66.0907 85.3982 66.3846C85.4065 66.7652 85.2632 67.1336 84.9996 67.4091C84.736 67.6845 84.3736 67.8446 83.9919 67.8542L83.9914 67.8544ZM84.4829 64.3654V63.567H82.75V63.6867H82.6229V63.1616H82.75V63.2931H85.2338V63.1616H85.3608V63.6875H85.2338V63.5679H84.6346V64.3662H85.2338V64.2323H85.3608L85.3584 64.7629H85.2338V64.6411H82.75V64.7653H82.6229V64.2326H82.75V64.3665L84.4829 64.3654ZM85.3986 62.656V62.7779H84.8186V62.6536H85.0582C85.1801 62.4804 85.2447 62.2735 85.2428 62.0619C85.2294 61.7422 85.0905 61.4406 84.8562 61.222C84.6218 61.0034 84.3107 60.8853 83.9899 60.8932C83.8288 60.8888 83.6684 60.9164 83.5181 60.9747C83.3678 61.0329 83.2308 61.1204 83.1149 61.2321C82.999 61.3439 82.9067 61.4776 82.8434 61.6254C82.78 61.7732 82.7469 61.9321 82.746 62.0928C82.7435 62.3724 82.8413 62.6436 83.0217 62.8576L83.0386 62.8815L82.9452 62.9674L82.9261 62.9455C82.7092 62.715 82.5883 62.4109 82.588 62.0948C82.5809 61.9063 82.612 61.7183 82.6795 61.5421C82.7469 61.3659 82.8493 61.2051 82.9806 61.0692C83.1118 60.9334 83.2692 60.8253 83.4433 60.7515C83.6173 60.6777 83.8046 60.6396 83.9938 60.6396C84.1829 60.6396 84.3702 60.6777 84.5443 60.7515C84.7184 60.8253 84.8757 60.9334 85.007 61.0692C85.1382 61.2051 85.2406 61.3659 85.3081 61.5421C85.3755 61.7183 85.4066 61.9063 85.3995 62.0948C85.3995 62.2873 85.3622 62.478 85.2896 62.6565L85.3986 62.656Z" fill="#BDBDBD"/>
<path d="M83.9917 65.1841C83.8305 65.1785 83.6699 65.2052 83.5193 65.2626C83.3686 65.3201 83.2311 65.4071 83.1148 65.5185C82.9986 65.6299 82.9059 65.7634 82.8423 65.9112C82.7788 66.0589 82.7456 66.2179 82.7448 66.3787C82.744 66.5395 82.7756 66.6988 82.8376 66.8472C82.8997 66.9955 82.991 67.13 83.1062 67.2426C83.2213 67.3551 83.3579 67.4435 83.508 67.5024C83.658 67.5614 83.8184 67.5897 83.9796 67.5857C84.3065 67.5923 84.6226 67.4695 84.8589 67.2443C85.0952 67.019 85.2324 66.7096 85.2404 66.3837C85.2408 66.2246 85.2086 66.0672 85.146 65.9209C85.0833 65.7747 84.9915 65.6427 84.876 65.533C84.6377 65.3068 84.3206 65.1817 83.9917 65.1841Z" fill="#BDBDBD"/>
<path d="M90.4375 26.8169C89.6845 27.4478 88.7302 27.7898 87.7466 27.7811C85.3754 27.7811 83.5264 25.8695 83.5264 23.4299C83.5264 21.0323 85.3343 19.1038 87.6385 19.0452C88.3842 19.0381 89.1135 19.2639 89.724 19.6908V20.5289H90.1612V18.5H89.7227V18.8857C89.097 18.6348 88.4294 18.504 87.755 18.5C84.9043 18.5 82.5834 20.7051 82.5834 23.4214C82.5834 26.1294 84.9043 28.3345 87.755 28.3345C88.8671 28.3332 89.9371 27.9107 90.7485 27.1524L90.8241 27.0853L90.5215 26.7584L90.4375 26.8169ZM77.8657 19.0785H78.3029L76.7221 23.0526L74.7293 19.0785H75.1498V18.6341H73.266V19.0785H73.7032L76.0242 23.806V27.7642H75.4272V28.2087H77.6808V27.7642H77.008V23.8238L78.9085 19.0785H79.3289V18.6341H77.8657V19.0785ZM56.2966 19.0785H56.7171V18.6341H54.9092V19.0785H55.355V27.7642H54.9092V28.2087H56.7254V27.7642H56.2966V19.0785ZM69.0783 23.6478L66.9255 18.6341H65.7988V19.0785H66.2696V27.7642H65.7988V28.2087H67.2957V27.7642H66.8668V20.6639L68.9187 25.5432L70.9704 20.4114V27.7642H70.4996V28.2087H72.349V27.7642H71.9285V19.0785H72.349V18.6341H71.0792L69.0783 23.6478ZM61.3251 23.6478L59.1725 18.6341H58.0458V19.0785H58.5166V27.7642H58.0373V28.2087H59.5341V27.7642H59.1143V20.6639L61.1662 25.5432L63.2172 20.4114V27.7642L62.8387 27.7726L62.7881 27.7809L62.7461 27.848V28.2085H64.5793V27.7642H64.1672V19.0785H64.5875V18.6341H63.3176L61.3251 23.6478ZM96.7105 19.0785H97.1394V18.6341H95.2726V19.0785H95.7341V21.1745H92.9338V19.0785H93.3543V18.6341H91.497V19.0785H91.9678V27.7642H91.497V28.2087H93.3471V27.7642H92.9349V21.7022H95.7352V27.7638H95.2737V28.2082H97.1405V27.7642H96.7116L96.7105 19.0785ZM51.722 19.07H52.1931V25.7345C52.1931 27.3441 51.1083 27.7969 50.5364 27.8052C50.0066 27.7969 48.9722 27.386 48.8797 25.9357L48.8714 25.8261L47.9464 25.9701L47.9633 26.0707C48.0159 26.4734 48.1506 26.8612 48.359 27.2102C48.604 27.5591 48.9296 27.844 49.3083 28.041C49.687 28.238 50.1076 28.3412 50.5348 28.342C50.9619 28.3428 51.3829 28.2412 51.7624 28.0457C52.1418 27.8501 52.4685 27.5664 52.7149 27.2186C53.1354 26.5646 53.169 25.7941 53.169 24.9215V19.0869H53.5888V18.6341H51.722V19.07ZM102.849 18.5C99.9986 18.5 97.6777 20.7051 97.6777 23.4214C97.6777 26.1294 99.9986 28.3428 102.849 28.3428C105.7 28.3428 108.021 26.1377 108.021 23.4214C108.021 20.7051 105.701 18.5 102.849 18.5ZM102.824 27.7809C100.469 27.7809 98.6279 25.8693 98.6279 23.4212C98.6196 22.2703 99.0598 21.1612 99.8557 20.3277C100.242 19.9238 100.706 19.6025 101.221 19.3834C101.736 19.1643 102.29 19.052 102.849 19.0533C105.179 19.0533 107.079 21.032 107.079 23.4633C107.088 24.0265 106.985 24.5859 106.775 25.1089C106.566 25.632 106.254 26.1083 105.858 26.5101C105.462 26.9119 104.99 27.2311 104.469 27.4493C103.948 27.6675 103.389 27.7802 102.824 27.7809ZM113.882 18.5C111.031 18.5 108.71 20.7051 108.71 23.4214C108.71 26.1294 111.031 28.3428 113.882 28.3428C116.733 28.3428 119.054 26.1377 119.054 23.4214C119.054 20.7051 116.733 18.5 113.882 18.5ZM113.899 27.7809C111.553 27.7726 109.652 25.8108 109.652 23.4297C109.644 22.2788 110.084 21.1697 110.88 20.336C111.265 19.9301 111.729 19.6069 112.244 19.3863C112.759 19.1657 113.313 19.0524 113.874 19.0533C116.204 19.0533 118.103 21.032 118.103 23.4633C118.103 25.8695 116.262 27.7642 113.898 27.7809H113.899Z" fill="#BDBDBD"/>
</g>
</svg>

<svg xmlns="http://www.w3.org/2000/svg" width="167" height="111" fill="none"><mask id="a" width="73" height="75" x="47" y="18" maskUnits="userSpaceOnUse" style="mask-type:luminance"><path fill="#fff" d="M47.067 18.5h72.536v74.072H47.067z"/></mask><g fill="#BDBDBD" mask="url(#a)"><path d="M74.683 80.113v-3.268q0-7.89.004-15.78.007-2.595.08-5.19c.024-2.22.65-4.392 1.813-6.286 1.118-1.796 2.699-3.053 4.602-3.93a17.9 17.9 0 0 1 5.571-1.468 21 21 0 0 1 5.497.103c1.631.25 3.268.54 4.745 1.296 3.6 1.844 5.922 4.688 6.626 8.731.204 1.346.299 2.706.286 4.067.01.755.013 1.51-.006 2.266-.012.453-.151.559-.601.563l-4.12.038c-.472.004-.703-.195-.73-.67a43 43 0 0 1-.053-1.79c-.018-1.322 0-2.645-.047-3.967-.094-2.687-1.052-5.009-3.06-6.85a9.28 9.28 0 0 0-10.09-1.375c-2.332 1.201-3.971 3.008-4.62 5.579a12.7 12.7 0 0 0-.277 2.596c-.05 1.304-.042 2.612-.04 3.918.005 3.653.035 7.306.02 10.959a36 36 0 0 1-.184 3.72c-.306 2.829-1.732 4.938-4.268 6.272q-.561.262-1.148.466m.282 2.991c2.355-.459 2.355-.459 5.222-1.718.038.47.066.936.114 1.4.343 3.36 2.04 5.793 5.06 7.305.763.382 1.604.504 2.447.582 1.131.12 2.272.105 3.4-.045 2.289-.334 4.005-1.544 5.288-3.423a9.8 9.8 0 0 0 1.762-5.2c.066-1.563.095-3.128.136-4.692.011-.416-.007-.833.013-1.25.022-.498.271-.736.775-.766.236-.014.474-.015.71-.015q1.611.002 3.222.008c.572.001.806.183.802.746-.009 1.391-.022 2.783-.1 4.173a13.8 13.8 0 0 1-.705 3.766c-1.284 3.687-3.801 6.177-7.462 7.517-2.143.784-4.374 1.045-6.648 1.004a20.1 20.1 0 0 1-7.068-1.339 11.58 11.58 0 0 1-5.743-4.748 9.8 9.8 0 0 1-1.225-3.305m6.047-38.034v-8.83c.013-.564.224-.786.796-.788q2.191-.01 4.383 0c.551.002.747.204.784.753q.008.153.008.307v7.056c-2.058.182-4.074.69-5.971 1.502"/><path d="M83.992 68.32a1.237 1.237 0 0 0-1.247 1.207 1.2 1.2 0 0 0 .767 1.111c.149.059.308.087.468.084a1.24 1.24 0 0 0 1.26-1.202 1.17 1.17 0 0 0-.364-.85 1.27 1.27 0 0 0-.884-.35"/><path d="M86.982 46.838v-.285c-1.14.309-2.2.857-3.11 1.609-1.217 1.043-2.18 2.272-2.641 3.832-.306 1.036-.343 2.11-.35 3.179-.012 2.078.01 4.157.01 6.235q-.001 4.582-.016 9.165a21.5 21.5 0 0 1-.243 3.385 8.2 8.2 0 0 1-3.886 5.87c-1.886 1.188-3.935 1.352-6.052.745-2.506-.718-4.303-2.24-5.211-4.717a17.8 17.8 0 0 1-.913-4.422c-.122-1.26-.199-2.524-.297-3.786-.04-.506-.24-.711-.747-.719-1.452-.022-2.904-.034-4.356-.048q-.107-.002-.212.02c-.44.087-.698.413-.681.99.03.974.058 1.953.176 2.918.41 3.369 1.978 6.147 4.54 8.337 3.78 3.236 8.194 4.12 12.996 3.153 3.517-.707 6.312-2.651 8.55-5.408 1.233-1.52 2.066-3.242 2.228-5.212.126-1.527.2-3.062.205-4.594.023-6.75.01-13.499.01-20.247m-4.074 4.061a.85.85 0 0 1 .326-.112l.029-.005.04.265-.03.003a.514.514 0 0 0-.535.47c.002.163.132.471.592.471h1.905v-.133h.125v.528h-.13v-.12h-1.668a1.2 1.2 0 0 1-.656-.129.757.757 0 0 1 .002-1.238m2.452 4.254v.358h-.127v-.117H82.75v.117h-.127v-.524h.103l.02.012.002.015.002.107h2.103l-1.467-.583 1.394-.583h-2.03v.122h-.127v-.425h.127v.136h2.484v-.136h.127v.32l-1.433.612zm0 2.203v.361h-.127v-.12H82.75v.12h-.127v-.526h.127v.134h2.103l-1.467-.58 1.394-.586h-2.03v.122h-.127v-.426h.127v.136h2.484v-.136h.127v.32l-1.433.613zm-1.263 1.604 1.136.45v-.125h.127v.416h-.127v-.12l-1.357-.54H82.75v.192h-.127v-.64h.127v.169h1.131l1.352-.66v-.121h.127v.532h-.127v-.12zm1.136-5.683v-.12H82.75v.12h-.127v-.516h.127v.127h2.484v-.127h.127v.517zM83.991 70.99a1.48 1.48 0 0 1-1.411-.86 1.468 1.468 0 0 1 1.03-2.048 1.48 1.48 0 0 1 1.535.613c.165.244.253.531.253.825.008.38-.135.749-.398 1.024a1.45 1.45 0 0 1-1.008.445m0-3.136a1.48 1.48 0 0 1-1.411-.859 1.47 1.47 0 0 1 .275-1.626 1.478 1.478 0 0 1 2.543 1.016 1.437 1.437 0 0 1-1.406 1.47m.492-3.489v-.798H82.75v.12h-.127v-.525h.127v.131h2.484v-.131h.127v.526h-.127v-.12h-.6v.798h.6v-.134h.127l-.003.53h-.124v-.12H82.75v.123h-.127v-.532h.127v.133zm.916-1.709v.122h-.58v-.124h.24a1.02 1.02 0 0 0 .184-.592 1.22 1.22 0 0 0-1.253-1.169 1.213 1.213 0 0 0-1.244 1.2c-.002.28.095.55.276.765l.017.024-.094.085-.019-.021a1.24 1.24 0 0 1-.338-.851 1.4 1.4 0 0 1 .855-1.343 1.41 1.41 0 0 1 1.865.79 1.4 1.4 0 0 1 .091.553c0 .192-.037.383-.11.562z"/><path d="M83.992 65.184a1.21 1.21 0 0 0-1.15.727 1.2 1.2 0 0 0 .666 1.591c.15.06.31.088.472.084a1.24 1.24 0 0 0 1.26-1.202 1.17 1.17 0 0 0-.364-.851 1.27 1.27 0 0 0-.884-.349m6.446-38.367a4.13 4.13 0 0 1-2.691.964c-2.372 0-4.22-1.912-4.22-4.351 0-2.398 1.807-4.326 4.111-4.385a3.6 3.6 0 0 1 2.086.646v.838h.437V18.5h-.438v.386a5.4 5.4 0 0 0-1.968-.386c-2.85 0-5.172 2.205-5.172 4.921 0 2.708 2.321 4.913 5.172 4.913a4.4 4.4 0 0 0 2.994-1.182l.075-.067-.302-.327zm-12.572-7.739h.437l-1.58 3.975-1.994-3.975h.42v-.444h-1.883v.444h.437l2.321 4.728v3.958h-.597v.445h2.254v-.445h-.673v-3.94l1.9-4.746h.42v-.444h-1.462zm-21.57 0h.421v-.444H54.91v.444h.446v8.686h-.446v.445h1.816v-.445h-.428zm12.782 4.57-2.153-5.014H65.8v.444h.47v8.686h-.47v.445h1.497v-.445h-.43v-7.1l2.053 4.88 2.051-5.133v7.353h-.47v.445h1.849v-.445h-.42v-8.686h.42v-.444h-1.27zm-7.753 0-2.153-5.014h-1.126v.444h.47v8.686h-.479v.445h1.497v-.445h-.42v-7.1l2.052 4.88 2.051-5.133v7.353l-.378.009-.05.008-.043.067v.36h1.833v-.444h-.412v-8.686h.42v-.444h-1.27zm35.385-4.57h.43v-.444h-1.867v.444h.461v2.096h-2.8v-2.096h.42v-.444h-1.857v.444h.47v8.686h-.47v.445h1.85v-.445h-.412v-6.062h2.8v6.062h-.461v.444h1.867v-.444h-.43zm-44.988-.008h.471v6.665c0 1.61-1.085 2.062-1.657 2.07-.53-.008-1.564-.419-1.656-1.87l-.009-.109-.925.144.017.1c.053.403.188.791.396 1.14a2.66 2.66 0 0 0 2.176 1.132 2.67 2.67 0 0 0 2.18-1.123c.42-.654.454-1.425.454-2.297v-5.835h.42v-.453h-1.867zm51.127-.57c-2.85 0-5.171 2.205-5.171 4.921 0 2.708 2.32 4.922 5.171 4.922s5.172-2.205 5.172-4.922-2.32-4.921-5.172-4.921m-.025 9.28c-2.355 0-4.196-1.91-4.196-4.359a4.43 4.43 0 0 1 1.228-3.093 4.12 4.12 0 0 1 2.993-1.275c2.33 0 4.23 1.979 4.23 4.41a4.23 4.23 0 0 1-1.221 3.047 4.26 4.26 0 0 1-3.034 1.27m11.058-9.28c-2.851 0-5.172 2.205-5.172 4.921 0 2.708 2.321 4.922 5.172 4.922s5.172-2.205 5.172-4.922-2.321-4.921-5.172-4.921m.017 9.28c-2.346-.007-4.247-1.97-4.247-4.35a4.43 4.43 0 0 1 1.228-3.094 4.1 4.1 0 0 1 2.994-1.283c2.33 0 4.229 1.979 4.229 4.41 0 2.406-1.841 4.301-4.205 4.318z"/></g></svg>
